content/_snippets/hardware/dipole-antenna/image.svg

<svg width="365" height="152" viewBox="0 0 365 152" fill="none" xmlns="http://www.w3.org/2000/svg">
<path d="M182 29V116C182 133.673 167.673 148 150 148H67" stroke="#9FA1A2" stroke-width="8" stroke-linecap="round"/>
<path d="M345.909 0L19.0909 0C8.54728 0 0 9.62588 0 21.5C0 33.3741 8.54728 43 19.0909 43L345.909 43C356.453 43 365 33.3741 365 21.5C365 9.62588 356.453 0 345.909 0Z" fill="#434F54"/>
<path d="M157.422 43.2402L205.814 43.2402C220.796 39.067 230.916 31.138 230.916 22.0374C230.916 12.2883 219.293 3.88156 202.519 0L160.717 0C143.943 3.88156 132.32 12.2883 132.32 22.0374C132.32 31.138 142.439 39.067 157.422 43.2402Z" fill="#515959"/>
<path d="M188.002 40.671H175.233C174.37 40.671 173.67 41.3801 173.67 42.2548V43.4162C173.67 44.2909 174.37 45 175.233 45H188.002C188.866 45 189.566 44.2909 189.566 43.4162V42.2548C189.566 41.3801 188.866 40.671 188.002 40.671Z" fill="#515959"/>
</svg>

<svg xmlns="http://www.w3.org/2000/svg" width="365" height="152" fill="none" viewBox="0 0 365 152"><path stroke="#9fa1a2" stroke-linecap="round" stroke-width="8" d="M182 29v87c0 17.673-14.327 32-32 32H67"/><path fill="#434f54" d="M345.909 0H19.091C8.547 0 0 9.626 0 21.5S8.547 43 19.09 43H345.91C356.453 43 365 33.374 365 21.5S356.453 0 345.909 0"/><path fill="#515959" d="M157.422 43.24h48.392c14.982-4.173 25.102-12.102 25.102-21.203 0-9.749-11.623-18.155-28.397-22.037h-41.802c-16.774 3.882-28.397 12.288-28.397 22.037 0 9.101 10.119 17.03 25.102 21.203"/><path fill="#515959" d="M188.002 40.671h-12.769c-.863 0-1.563.71-1.563 1.584v1.161c0 .875.7 1.584 1.563 1.584h12.769c.864 0 1.564-.71 1.564-1.584v-1.161c0-.875-.7-1.584-1.564-1.584"/></svg>
